X: 7459
T: Clumsy Lover, The
R: jig
M: 6/8
K: Dmajor
|:FAF AFA|GBG =cBA|FAF AFA|GEF GEG|
FAF AFA|GBG =cBA|FAF GEA|D3 D2E:|
|:FAA dAF|GAA dAG|FAA dAF|GEF GFE|
FAA dAF|GAA dAG|FAF GEA|D3 D2E:|
|:F3 AFA|G3 =cBA|F3 AFA|GEF GFE|
F3 AFA|G3 =cBA|FAF GEA|D3 D2E:|
|:Fdd AdF|Gdd AdG|Fdd AdF|E2F GFE|
Fdd AdF|Gdd AdG|FAF GEA|D3 D2E:|

